X:1
T:Title
%%score { ( 1 2 ) | ( 3 4 ) }
L:1/8
Q:1/4=100
M:4/4
K:Ab
V:1 treble nm="Grand Piano"
V:2 treble 
V:3 bass 
V:4 bass 
V:1
 z2 [DB]2 z4 | z2 [DB]2 z4 | E2 F2 E2 [EB]2 | [EA]2 B2 c4 | z2 [DB]2 z4 | %5
 [Cc]2 [DB]2 [A,CA]2 [A,CE]2 | [A,EA]2 [A,EG]2 [A,DF]2 [DFB]2 | [CEA]2 [B,DG]2 [A,CA]4 |] %8
V:2
 [Cc]2 z G, [CA]2 [CE]2 | [Cc]2 z G, [CA]2 [CE]2 | x8 | x8 | [Cc]2 z G, [CA]2 [CE]2 | x8 | x8 | %7
 x8 |] %8
V:3
 [A,,E,]2 .[A,,F,]2 [A,,A,]2 [A,,A,]2 | [A,,E,]2 .[A,,F,]2 [A,,A,]2 [A,,A,]2 | %2
 [E,G,D]2 [E,A,D]2 [E,G,D]2 [D,G,]2 | [C,A,]2 [E,G,E]2 [A,E]4 | %4
 [A,,E,]2 .[A,,F,]2 [A,,A,]2 [A,,A,]2 | [A,,E,]2 F,G, A,,2 A,,2 | C,2 C,2 D,2 B,,2 | %7
 E,2 E,2 A,,4 |] %8
V:4
 x8 | x8 | x8 | x8 | x8 | z2 A,,2 z4 | x8 | x8 |] %8

